X:5
T:Hanover Hornpipe
M:2/4
Q:1/4=100
L:1/16
K:D
%%MIDI channel 1
%%MIDI program 72
%%MIDI transpose 8
%%MIDI grace 1/8
%%MIDI ratio 3 1
FG|AFAd BGBd|AFAd f2ef|gfed cABc|dAfd A2FG|
AFAd BGBd|AFAd f2ef|gfed cABc|d2f2d2::
ef|gfed cABc|dcde f2ef|gfed cABc|dAfd A2FG|
AFAd BGBd|AFAd f2ef|gfed cABc|d2f2d2:|
